X: 1
T: Tuttle's
R: reel
M: 4/4
L: 1/8
K: Ddor
A,DDE FEFG|A2Gc Ad~d2|A,DDE F2dB|cAGE FDEC|
A,DDE FEFG|A2Gc Ad~d2|fded dcAB|1 cAGE FDEC:|2 cAGE EDD2||
|:d2dB c2cG|AddB cAGA|d2dB cdcA|GEcE EDD2|
d2dB c2cG|Addc d2de|fded dcAB|1 cAGE EDD2:|2 cAGE FDEC||


Tune 528	Setting 30037

